X:42
T:La bataille
C:Tielman Susato
B:Tielman Susato: "Danserye" (1551) no. 42
R:Pavane
Z:Transcribed by Frank Nordberg - http://www.musicaviva.com
F:http://abc.musicaviva.com/tunes/susato-tielman/susato-1551-42/susato-1551-42-4m.abc
M:4/2 
L:1/2
K:C
V:1
G2GG|E2EF|F2FF|D4|GGGG|EGFE|D2C2|B,4:|
|:zG,A,2|C2B,2|zG,A,B,|CDEE|DCFF|E2DC|B,C2B,|C4:|
|:zEG>G|F/E/D/F/E2|z4|zEDF|E2z2|zEDC|B,C2B,|C4:|
|:E2E2|E//E//E//E// E/G/ E//E//E//E// E/G/|E2E2|D2D2|DE/C/ D/D/E/C/|D/D/E/C/ DE-|E/D/C2B,|C4:|
V:2
C2CC|C2CC|C2C2-|CB,/A,/B,2|B,2B,B,|C2CC|_B,G,2^F,|G,4:|
|:zB,C>B,|A,F,G,2|zB,CG,|G,B,CC|B,G,CC|CCB,G,|G,F,G,2|E,4:|
|:zCE>E|D/C/B,/A,/C2|z4|zCB,A,|C2z2|zCB,G,|G,F,G,2|E,4:|
|:C2C2|C//C//C//C// C/G,/ C//C//C//C// C/G,/|C2C2|B,2B,2|B,C/C/ B,/B,/C/C/|B,/B,/C/C/ B,/B,/C|G,A,G,2|E,4:|
V:3
G,2G,G,|G,2G,A,-|A,A,A,A,|G,4|D,2D,G,|G,2A,G,-|G,/F,/D,E,C,|D,4:|
|:zD,F,2|E,C,D,2|zD,F,D,|E,G,G,G,|G,G,A,2|G,G,>F,E,|D,C,D,2|C,4:|
|:z4|z2zE,|G,>G, F,/E,/D,/F,/|E,2z2|zE,D,F,|E,G,>F,E,|D,C,D,2|C,4:|
|:G,2G,2|G,//G,//G,//G,// G,/G,/G,2|G,//G,//G,//G,// G,/C/G,2|\
G,//G,//G,//G,// G,/D,/ G,//G,//G,//G,// G,/D,/|\
G,>E,G,>E,|G,>E,G,>F,|E,F,D,2|C,4:|
V:4
C,2C,C,|C,2C,F,,-|F,,F,,F,,F,,|G,,4|G,,2G,,G,,|C,2F,,C,|G,,_B,,A,,2|G,,4:|
|:zG,,F,,>G,,|A,,A,,G,,2|zG,,F,,G,,|C,F,,C,C,|G,,C,F,,/G,,/A,,/B,,/|C,C,,G,,C,,|G,,A,,G,,2|C,,4:|
|:z4|z2zC,|E,>E, D,/C,/B,,/A,,/|C,2z2|zC,B,,A,,|C,C,G,,C,|G,,A,,G,,2|C,,4:|
|:C,2C,2|C,//C,//C,//C,// C,/E,/ C,//C,//C,//C,// C,/E,/|\
C,2C,2|G,,4|G,,C,/C,/ G,,/G,,/C,/C,/|G,,/G,,/C,/C,/ G,,/G,,/C,|C,F,,F,,2|C,,4:|
W:
W:
W:  From Musica Viva - http://www.musicaviva.com
W:  the Internet center for free sheet music downloads.
